symbols/web/filter_drama/materialsymbolsrounded/filter_drama_wght100grad200fill1_24px.svg

<svg xmlns="http://www.w3.org/2000/svg" height="24" width="24"><path d="M6.4 19.45q-2.05 0-3.5-1.388-1.45-1.387-1.45-3.412 0-1.975 1.313-3.3 1.312-1.325 3.312-1.325 2 0 3.263 1.175 1.262 1.175 1.362 2.95.025.2.138.3.112.1.262.1.1 0 .188-.075.087-.075.112-.2-.15-2.325-1.925-3.813-1.775-1.487-4.3-1.137.85-1.925 2.713-3.35Q9.75 4.55 12 4.55q2.7 0 4.438 1.762 1.737 1.763 2.012 4.113v1.3h.8q1.425.275 2.363 1.25.937.975.937 2.575 0 1.625-1.137 2.762-1.138 1.138-2.763 1.138Z"/></svg>

<svg xmlns="http://www.w3.org/2000/svg" height="24" width="24"><path d="M6.4 19.45Q4.35 19.45 2.9 18.062Q1.45 16.675 1.45 14.65Q1.45 12.675 2.763 11.35Q4.075 10.025 6.075 10.025Q8.075 10.025 9.338 11.2Q10.6 12.375 10.7 14.15Q10.725 14.35 10.838 14.45Q10.95 14.55 11.1 14.55Q11.2 14.55 11.288 14.475Q11.375 14.4 11.4 14.275Q11.25 11.95 9.475 10.462Q7.7 8.975 5.175 9.325Q6.025 7.4 7.888 5.975Q9.75 4.55 12 4.55Q14.7 4.55 16.438 6.312Q18.175 8.075 18.45 10.425V11.725H19.25Q20.675 12 21.613 12.975Q22.55 13.95 22.55 15.55Q22.55 17.175 21.413 18.312Q20.275 19.45 18.65 19.45Z"/></svg>
